packages/parametric-svg-example-app/app/beam.parametric.svg

<?xml version="1.0" encoding="UTF-8" standalone="no"?>
<svg
  version="1.1"
  width="560"
  height="850"
  viewBox="0 0 560 850"
  xmlns="http://www.w3.org/2000/svg"
  xmlns:xlink="http://www.w3.org/1999/xlink"
  xmlns:sodipodi="http://sodipodi.sourceforge.net/DTD/sodipodi-0.dtd"
  xmlns:inkscape="http://www.inkscape.org/namespaces/inkscape"
  >
  <sodipodi:namedview
    showgrid="true"
    >
    <inkscape:grid
      type="xygrid"
      spacingx="0.5"
      spacingy="0.5"
      empspacing="2"
    />
  </sodipodi:namedview>
  <defs>
    <marker
      id="arrowhead"
      orient="auto"
      refY="0.5"
      >
      <path
        d="
          M 0.3,0.5
            1,0
            1,1
          Z
        "
      />
    </marker>
    <style
      ><![CDATA[
      .force {
        stroke-width: 14;
        stroke: black;
        marker-start: url(#arrowhead);
        stroke-dasharray: 0 13.8 999999999999 0;
      }

      .graph {
        opacity: 0.3;
      }

      .beam, .force {
        opacity: 0.8;
      }

      .beam {
        opacity: 0.8;
        stroke-width: 2;
        stroke: black;
      }
    ]]></style>
  </defs>
  <g
    inkscape:label="1"
    transform="translate(40,170)"
    >
    <path
      inkscape:label="Force B"
      d="
        m 328,0
          0,-85
      "
      class="force"
    />
    <path
      inkscape:label="Force A"
      d="
        M 0,0
          0,46
      "
      class="force"
    />
    <path
      inkscape:label="Wall"
      d="
        m 480,-16
          0,32
      "
      class="beam"
    />
    <path
      inkscape:label="Beam"
      d="
        M 0,0
          480,0
      "
      id="beam"
      class="beam"
    />
  </g>
  <g
    inkscape:label="2"
    transform="translate(40,420)"
    >
    <path
      inkscape:label="Graph"
      class="graph"
      d="
        m 0,0
          0,-96
          328,0
          0,136
          152,0
          0,-40
      "
    />
    <path
      inkscape:label="Wall"
      d="
        m 480,-16
          0,72
      "
      class="beam"
    />
    <use
      inkscape:label="Beam"
      xlink:href="#beam"
    />
  </g>
  <g
    inkscape:label="3"
    transform="translate(40,670)"
    >
    <path
      inkscape:label="Graph"
      d="
        m 0,0
          328,104
          152,-48
          0,-56
      "
      class="graph"
    />
    <path
      inkscape:label="Wall"
      d="
        m 480,-16
          0,88
      "
      class="beam"
    />
    <use
      inkscape:label="Beam"
      xlink:href="#beam"
    />
  </g>
</svg>

<?xml version="1.0" encoding="UTF-8" standalone="no"?>
<svg
  version="1.1"
  width="560"
  height="850"
  viewBox="0 0 560 850"
  xmlns="http://www.w3.org/2000/svg"
  xmlns:xlink="http://www.w3.org/1999/xlink"
  xmlns:sodipodi="http://sodipodi.sourceforge.net/DTD/sodipodi-0.dtd"
  xmlns:inkscape="http://www.inkscape.org/namespaces/inkscape"
  >
  <sodipodi:namedview
    showgrid="true"
    >
    <inkscape:grid
      type="xygrid"
      spacingx="0.5"
      spacingy="0.5"
      empspacing="2"
    />
  </sodipodi:namedview>
  <defs>
    <marker
      id="arrowhead"
      orient="auto"
      refY="0.5"
      >
      <path
        d="
          M 0.3,0.5
            1,0
            1,1
          Z
        "
      />
    </marker>
    <style
      ><![CDATA[
      .force {
        stroke-width: 14;
        stroke: black;
        marker-start: url(#arrowhead);
        stroke-dasharray: 0 13.8 999999999999 0;
      }

      .graph {
        opacity: 0.3;
      }

      .beam, .force {
        opacity: 0.8;
      }

      .beam {
        opacity: 0.8;
        stroke-width: 2;
        stroke: black;
      }
    ]]></style>
  </defs>
  <g
    inkscape:label="1"
    transform="translate(40,170)"
    >
    <path
      inkscape:label="Force B"
      d="
        m 328,0
          0,-85
      "
      class="force"
    />
    <path
      inkscape:label="Force A"
      d="
        M 0,0
          0,46
      "
      class="force"
    />
    <path
      inkscape:label="Wall"
      d="
        m 480,-16
          0,32
      "
      class="beam"
    />
    <path
      inkscape:label="Beam"
      d="
        M 0,0
          480,0
      "
      id="beam"
      class="beam"
    />
  </g>
  <g
    inkscape:label="2"
    transform="translate(40,420)"
    >
    <path
      inkscape:label="Graph"
      class="graph"
      d="
        M 0,0
          0,-96
          328,-96
          328,40
          480,40
          480,0
      "
    />
    <path
      inkscape:label="Wall"
      d="
        m 480,-16
          0,72
      "
      class="beam"
    />
    <use
      inkscape:label="Beam"
      xlink:href="#beam"
    />
  </g>
  <g
    inkscape:label="3"
    transform="translate(40,670)"
    >
    <path
      inkscape:label="Graph"
      d="
        M 0,0
          328,104
          480,56
          480,0
      "
      class="graph"
    />
    <path
      inkscape:label="Wall"
      d="
        m 480,-16
          0,88
      "
      class="beam"
    />
    <use
      inkscape:label="Beam"
      xlink:href="#beam"
    />
  </g>
</svg>
